X:78
T:(Danse des Paysans - continued)
T:John Malchair's Third Collection of Tunes
%%VWML:Malchair-3619-p78
F:https://www.vwml.org/record/Malchair/3619/p78
F:www.vwml.org/topics/historic-dance-and-tune-books/Malchair
Z:Eric Conrad Mar 2020
M:3/4
L:1/8
K:Cm
{=B,}C4 ga | gfed ec | f2 {g f } edec | e/d/c/=B/ {B}c4 :|
d2 d=Bdf | {d}e2 edec | d2 d=Bdf | e2 c2 cd/e/ |
d2 d=Bdf | {d}e2 edec | d2 d=Bdf | {d}e2 c2 z2 |]
T:(untitled)
M:2/4
L:1/16
K:D
|: ABAG A2FD | ABAG A2FD | ABAG ABcA | d2BG A2FD :|
|: DEDC DEFD | G2 GE F2 FD | DEDC DEFD | G2 GE F2FE | DEDC D4 :|
T:(untitled)
M:2/4
L:1/16
K:Am
|: a2 | (ge)(fd) A>(_BAG) | (FD)(E^C) A,2a2 | (ge)(fd) A>(_BAG) | (FD)(E^C) A,2 z2 :|
% In next line, MS has repeat marked at start but not at end.
|: A,2 | DEFG A>(BAG) | (FD)(E^C) A,2A,2 | (DEFG) A>(BAG) | (FD)(E^C) A,2D^C | =C4-C2 :|


